X: 506
T: Cumberland Gap
B: jims roots
M:C|
L:1/8
Q: 1/4=100
K:D
V:1 
|:"D"A,A,B,2 D2E2 | F2A2"Bm (G)"[B2D][BD]A | BBA2 BBA2 |[1,2,3 "D"AFE2 D2B,2 :|[4 "D"AFE2 D4 ||
|:"A"{d}e4- e4 | de"D"fe d2"Bm (G)"B2 | BABA Bcd2 | Bc"D"dB AFD2 :||: [P:Crooked C Part]"D"fffg fedA |
"Bm (G)"B2BA B2e2 | "D"fffg fedA | "Bm (G)"B2BA B2BA | "D"dAdA dBAB | dB"(A)"AF "D"D4 :|
% abcbook-tune_id 6298c24556bbbb435f6ae1b2


% abcbook-boost 0
% abcbook-tablature 
% abcbook-transpose 
% abcbook-lastupdated 1654178373900
% abcbook-soundfonts 
% abcbook-repeats 1


